icons/svg/seamark/beacon_yellowblackyellow_tower.svg

<?xml version="1.0" encoding="UTF-8" standalone="no"?>
<svg
   xmlns:dc="http://purl.org/dc/elements/1.1/"
   xmlns:cc="http://creativecommons.org/ns#"
   xmlns:rdf="http://www.w3.org/1999/02/22-rdf-syntax-ns#"
   xmlns:svg="http://www.w3.org/2000/svg"
   xmlns="http://www.w3.org/2000/svg"
   xmlns:sodipodi="http://sodipodi.sourceforge.net/DTD/sodipodi-0.dtd"
   xmlns:inkscape="http://www.inkscape.org/namespaces/inkscape"
   width="580"
   height="580"
   id="svg2"
   version="1.1"
   inkscape:version="0.48.4 r9939"
   sodipodi:docname="beacon_yellowblackyellow_tower.svg">
  <defs
     id="defs13">
    <inkscape:path-effect
       effect="gears"
       id="path-effect3774"
       is_visible="true"
       teeth="6"
       phi="-1.2" />
    <inkscape:path-effect
       effect="bend_path"
       id="path-effect3772"
       is_visible="false"
       bendpath="m 95.790098,316.51174 c 144.429032,-206.42506 223.313032,-11.7428 339.548092,0"
       prop_scale="1.19"
       scale_y_rel="false"
       vertical="false"
       bendpath-nodetypes="cc" />
  </defs>
  <sodipodi:namedview
     pagecolor="#ffffff"
     bordercolor="#666666"
     borderopacity="1"
     objecttolerance="10"
     gridtolerance="10"
     guidetolerance="10"
     inkscape:pageopacity="0"
     inkscape:pageshadow="2"
     inkscape:window-width="1920"
     inkscape:window-height="1004"
     id="namedview11"
     showgrid="false"
     inkscape:zoom="1"
     inkscape:cx="460.64972"
     inkscape:cy="320.31388"
     inkscape:window-x="1680"
     inkscape:window-y="0"
     inkscape:window-maximized="1"
     inkscape:current-layer="svg2"
     inkscape:object-nodes="true"
     inkscape:object-paths="true"
     showguides="true"
     inkscape:guide-bbox="true" />
  <metadata
     id="metadata2975">image/svg+xmlen<rdf:RDF>
  <cc:Work
     rdf:about="">
    <dc:format>image/svg+xml</dc:format>
    <dc:type
       rdf:resource="http://purl.org/dc/dcmitype/StillImage" />
    <dc:title />
  </cc:Work>
</rdf:RDF>
</metadata>
  <path
     sodipodi:type="inkscape:offset"
     inkscape:radius="21"
     inkscape:original="M 187.75 233.03125 L 177.5 312.5625 L 170.90625 363.5 L 163.78125 418.6875 L 152.78125 504.0625 L 106.09375 504.0625 L 106.09375 529.0625 L 241.1875 529.0625 C 246.66606 547.06781 263.46753 560.28125 283.1875 560.28125 C 302.90748 560.28125 319.70894 547.06781 325.1875 529.0625 L 460.28125 529.0625 L 460.28125 504.0625 L 412.875 504.0625 L 401.875 418.6875 L 390.90625 333.75 L 388.15625 312.5625 L 377.90625 233.03125 L 338.1875 233.03125 L 187.75 233.03125 z M 263.5625 529.0625 L 302.8125 529.0625 C 298.68473 535.48827 291.48762 539.71875 283.1875 539.71875 C 274.88738 539.71875 267.69027 535.48827 263.5625 529.0625 z "
     style="opacity:0.42608696;color:#000000;fill:#8d8d8d;fill-opacity:1;fill-rule:nonzero;stroke:#a35151;stroke-width:0;stroke-linecap:round;stroke-linejoin:miter;stroke-miterlimit:4;stroke-opacity:1;stroke-dasharray:none;stroke-dashoffset:0;marker:none;visibility:visible;display:inline;overflow:visible;enable-background:accumulate"
     id="path3052"
     d="m 187.75,212.03125 a 21.0021,21.0021 0 0 0 -20.8125,18.3125 l -10.25,79.53125 -6.59375,50.9375 -7.125,55.1875 -8.625,67.0625 -28.25,0 a 21.0021,21.0021 0 0 0 -21,21 l 0,25 a 21.0021,21.0021 0 0 0 21,21 l 121.90625,0 c 11.44998,18.67202 31.88301,31.21875 55.1875,31.21875 23.30449,0 43.73752,-12.54673 55.1875,-31.21875 l 121.90625,0 a 21.0021,21.0021 0 0 0 21,-21 l 0,-25 a 21.0021,21.0021 0 0 0 -21,-21 l -28.96875,0 -8.625,-67.0625 -10.96875,-84.9375 -2.75,-21.1875 -10.25,-79.53125 a 21.0021,21.0021 0 0 0 -20.8125,-18.3125 l -39.71875,0 -150.4375,0 z" />
  <path
     style="color:#000000;fill:#ffd400;fill-opacity:1;fill-rule:nonzero;stroke:#a35151;stroke-width:0;stroke-linecap:round;stroke-linejoin:miter;stroke-miterlimit:4;stroke-opacity:1;stroke-dasharray:none;stroke-dashoffset:0;marker:none;visibility:visible;display:inline;overflow:visible;enable-background:accumulate"
     d="m 187.75,233.03125 -36.25,280.9375 262.65625,0 -36.25,-280.9375 z"
     id="rect3122"
     inkscape:connector-curvature="0"
     sodipodi:nodetypes="ccccc" />
  <path
     style="fill:none;stroke:#000000;stroke-width:25;stroke-linecap:butt;stroke-linejoin:miter;stroke-miterlimit:4;stroke-opacity:1;stroke-dasharray:none"
     d="m 106.0882,516.57012 354.21851,0"
     id="path3759"
     inkscape:connector-curvature="0"
     sodipodi:nodetypes="cc" />
  <path
     sodipodi:type="arc"
     style="color:#000000;fill:#fefefe;fill-opacity:1;stroke:#000000;stroke-width:25;stroke-linecap:round;stroke-linejoin:round;stroke-miterlimit:10;stroke-opacity:1;stroke-dasharray:none;stroke-dashoffset:0;marker:none;visibility:visible;display:inline;overflow:visible;enable-background:accumulate"
     id="path3759-1"
     sodipodi:cx="210.27438"
     sodipodi:cy="76.036606"
     sodipodi:rx="40.838413"
     sodipodi:ry="40.838413"
     d="m 251.1128,76.036606 a 40.838413,40.838413 0 1 1 -81.67683,0 40.838413,40.838413 0 1 1 81.67683,0 z"
     transform="matrix(0.82289092,0,0,0.82289092,110.16458,453.8318)" />
  <path
     style="opacity:0.42608696;color:#000000;fill:#000000;fill-opacity:1;fill-rule:nonzero;stroke:#a35151;stroke-width:0;stroke-linecap:round;stroke-linejoin:miter;stroke-miterlimit:4;stroke-opacity:1;stroke-dashoffset:0;marker:none;visibility:visible;display:inline;overflow:visible;enable-background:accumulate"
     d="m 338.201,233.03125 39.70525,0 35.24019,273.11151 -56.42936,7.82599 z"
     id="rect3050"
     inkscape:connector-curvature="0"
     sodipodi:nodetypes="ccccc" />
  <path
     style="color:#000000;fill:#000000;fill-opacity:1;fill-rule:nonzero;stroke:#a35151;stroke-width:0;stroke-linecap:round;stroke-linejoin:miter;stroke-miterlimit:4;stroke-opacity:1;stroke-dasharray:none;stroke-dashoffset:0;marker:none;visibility:visible;display:inline;overflow:visible;enable-background:accumulate"
     d="m 177.5,312.55465 -13.71875,106.12673 238.09375,0 -13.71875,-106.12673 -210.65625,0 z"
     id="rect3122-0"
     inkscape:connector-curvature="0" />
</svg>

<svg width="580" height="580" viewBox="0 0 580 580" fill="none" xmlns="http://www.w3.org/2000/svg">
<g clip-path="url(#clip0)">
<path opacity="0.426087" d="M187.75 212.031C182.649 212.035 177.723 213.896 173.893 217.266C170.063 220.636 167.591 225.284 166.938 230.344L156.688 309.875L150.094 360.812L142.969 416L134.344 483.062H106.094C100.524 483.063 95.1833 485.276 91.2451 489.214C87.307 493.152 85.0943 498.493 85.0938 504.062V529.062C85.0943 534.632 87.307 539.973 91.2451 543.911C95.1833 547.849 100.524 550.062 106.094 550.062H228C239.45 568.735 259.883 581.281 283.188 581.281C306.492 581.281 326.925 568.735 338.375 550.062H460.281C465.851 550.062 471.192 547.849 475.13 543.911C479.068 539.973 481.281 534.632 481.281 529.062V504.062C481.281 498.493 479.068 493.152 475.13 489.214C471.192 485.276 465.851 483.063 460.281 483.062H431.312L422.688 416L411.719 331.062L408.969 309.875L398.719 230.344C398.065 225.284 395.593 220.636 391.763 217.266C387.933 213.896 383.008 212.035 377.906 212.031H338.188H187.75Z" fill="#8D8D8D"/>
<path d="M187.75 233.031L151.5 513.969H414.156L377.906 233.031H187.75Z" fill="#FFD400"/>
<path d="M106.088 516.57H460.307" stroke="black" stroke-width="25"/>
<path d="M316.803 516.402C316.803 525.314 313.262 533.862 306.96 540.164C300.658 546.467 292.11 550.007 283.197 550.007C274.285 550.007 265.737 546.467 259.435 540.164C253.132 533.862 249.592 525.314 249.592 516.402C249.592 507.489 253.132 498.941 259.435 492.639C265.737 486.337 274.285 482.796 283.197 482.796C292.11 482.796 300.658 486.337 306.96 492.639C313.262 498.941 316.803 507.489 316.803 516.402V516.402Z" fill="#FEFEFE" stroke="black" stroke-width="20.5723" stroke-miterlimit="10" stroke-linecap="round" stroke-linejoin="round"/>
<path opacity="0.426087" d="M338.201 233.031H377.906L413.146 506.143L356.717 513.969L338.201 233.031Z" fill="black"/>
<path d="M177.5 312.555L163.781 418.681H401.875L388.156 312.555H177.5Z" fill="black"/>
</g>
<defs>
<clipPath id="clip0">
<path d="M0 0H580V580H0V0Z" fill="white"/>
</clipPath>
</defs>
</svg>
